outputs/icons/general/write_round.svg

<svg width="1200" height="1200" viewBox="0 0 1200 1200" fill="none" xmlns="http://www.w3.org/2000/svg"><path d="M250 150C194.5 150 150 194.5 150 250V950C150 976.52 160.536 1001.955 179.29 1020.71C198.043 1039.465 223.478 1050 250 1050H950C976.52 1050 1001.955 1039.465 1020.71 1020.71C1039.465 1001.955 1050 976.52 1050 950V650C1050 622.385 1027.615 600 1000 600C972.385 600 950 622.385 950 650V950H250V250H550C577.615 250 600 227.614 600 200C600 172.386 577.615 150 550 150H250ZM889 200C880 200.076 871.39 203.665 865 210L804 270.5L929 395.5L990 335C1003 322 1003 300 990 287.5L912.5 210C906 203.5 897.5 200 889 200ZM768.5 306L400 675V800H525L893.5 431L768.5 306Z" fill="black"/></svg>

<svg xmlns="http://www.w3.org/2000/svg" width="1200" height="1200" fill="none"><path fill="#000" d="M250 150c-55.5 0-100 44.5-100 100v700a100.003 100.003 0 0 0 100 100h700a100 100 0 0 0 100-100V650c0-27.615-22.385-50-50-50s-50 22.385-50 50v300H250V250h300c27.615 0 50-22.386 50-50s-22.385-50-50-50zm639 50a34.5 34.5 0 0 0-24 10l-61 60.5 125 125 61-60.5c13-13 13-35 0-47.5L912.5 210c-6.5-6.5-15-10-23.5-10M768.5 306 400 675v125h125l368.5-369z"/></svg>
